Obsidian-SemiLight/actions/22s/snap-nodes-intersection.svg

<svg viewBox="0 0 22 22" xmlns="http://www.w3.org/2000/svg"><path d="m3 3v1h1v-1zm15.292969 0-6 6h.707031v.7070312l6-6zm-13.292969 2v1h1v-1zm2 2v1h1v-1zm2 5.292969-6 6 .7070312.707031 6-6h-.7070312zm5 1.707031v1h1v-1zm2 2v1h1v-1zm2 2v1h1v-1z" fill="#4d4d4d"/><path d="m9 9v4h4v-4zm1 1h2v2h-2z" fill="#3daee9"/></svg>

<svg xmlns="http://www.w3.org/2000/svg" viewBox="0 0 22 22">
  <defs id="defs3051">
    <style type="text/css" id="current-color-scheme">
      .ColorScheme-Text {
        color:#4d4d4d;
      }
      .ColorScheme-Highlight {
        color:#3daee9;
      }
      </style>
  </defs>
 <path 
     style="fill:currentColor;fill-opacity:1;stroke:none" 
     d="M 3 3 L 3 4 L 4 4 L 4 3 L 3 3 z M 18.292969 3 L 12.292969 9 L 13 9 L 13 9.7070312 L 19 3.7070312 L 18.292969 3 z M 5 5 L 5 6 L 6 6 L 6 5 L 5 5 z M 7 7 L 7 8 L 8 8 L 8 7 L 7 7 z M 9 12.292969 L 3 18.292969 L 3.7070312 19 L 9.7070312 13 L 9 13 L 9 12.292969 z M 14 14 L 14 15 L 15 15 L 15 14 L 14 14 z M 16 16 L 16 17 L 17 17 L 17 16 L 16 16 z M 18 18 L 18 19 L 19 19 L 19 18 L 18 18 z "
     class="ColorScheme-Text"
     />
 <path 
     style="fill:currentColor;fill-opacity:1;stroke:none" 
     d="M 9 9 L 9 13 L 13 13 L 13 9 L 9 9 z M 10 10 L 12 10 L 12 12 L 10 12 L 10 10 z "
     class="ColorScheme-Highlight"
     />
</svg>
